Apricity Icons/16/panel/cryptkeeper.svg

<svg xmlns="http://www.w3.org/2000/svg" width="16" height="16" version="1.1">
 <defs>
  <style id="current-color-scheme" type="text/css">
   .ColorScheme-Text { color:#dfdfdf; } .ColorScheme-Highlight { color:#4285f4; }
  </style>
 </defs>
 <path style="fill:currentColor" class="ColorScheme-Text" d="M 10.5 1 A 4.5 4.5 0 0 0 6 5.5 A 4.5 4.5 0 0 0 10.5 10 A 4.5 4.5 0 0 0 15 5.5 A 4.5 4.5 0 0 0 10.5 1 z M 10.609375 3 A 2.2090507 1.7672404 45 0 1 12.25 3.75 A 2.2090507 1.7672404 45 0 1 12.5625 6.5625 A 2.2090507 1.7672404 45 0 1 9.75 6.25 A 2.2090507 1.7672404 45 0 1 9.4375 3.4375 A 2.2090507 1.7672404 45 0 1 10.609375 3 z M 5.1816406 6.8828125 L 1.2558594 10.880859 C 1.0917618 11.044921 1.0000592 11.267956 1 11.5 L 1 14.125 C 1.0000483 14.608229 1.3917709 14.999952 1.875 15 L 4.0996094 15 C 4.5828385 14.999952 4.9999517 14.608229 5 14.125 L 5 12 L 7.125 12 C 7.6082291 11.999952 7.9999517 11.983229 8 11.5 L 7.96875 10.376953 A 5.5 5.5 0 0 1 6.6582031 9.4296875 L 3.2148438 12.839844 C 2.5966745 13.428364 1.6980354 12.531608 2.2851562 11.912109 L 5.8710938 8.4707031 A 5.5 5.5 0 0 1 5.1816406 6.8828125 z"/>
</svg>

<svg xmlns="http://www.w3.org/2000/svg" width="16" height="16"><defs><style id="current-color-scheme" type="text/css"></style></defs><path d="M10.5 1A4.5 4.5 0 0 0 6 5.5a4.5 4.5 0 0 0 4.5 4.5A4.5 4.5 0 0 0 15 5.5 4.5 4.5 0 0 0 10.5 1zm.11 2a2.21 1.767 45 0 1 1.64.75 2.21 1.767 45 0 1 .313 2.813A2.21 1.767 45 0 1 9.75 6.25a2.21 1.767 45 0 1-.313-2.813A2.21 1.767 45 0 1 10.61 3zM5.181 6.883L1.256 10.88A.876.876 0 0 0 1 11.5v2.625c0 .483.392.875.875.875H4.1c.483 0 .9-.392.9-.875V12h2.125c.483 0 .875-.017.875-.5l-.031-1.123a5.5 5.5 0 0 1-1.31-.947l-3.444 3.41c-.618.588-1.517-.308-.93-.928l3.586-3.441a5.5 5.5 0 0 1-.69-1.588z" fill="currentColor" color="#dfdfdf"/></svg>
